X:42
T:Committee Reel
M:C|
L:1/8
C:© D. Bartley, L. Unger, P. Gitlitz & others 2001
R:Reel
N:The product of a tune writing workshop given by  Dave Bartley and Larry Unger Chehalis Dance Camp.
K:D
"A"|:"D"a2 fa gfed|"A"e2ce "G"d2g2|"D"a2 fa gfed|"A"edcB A4|!
"D"a2 fa gfed|"A"e2ce "D"d2f2|"G"gfeg "D"fedf|"A"edce "D"d4:|!
"B"|:"A"ABcB cded|efgf gab2|"G"b3a g3f|"A"e2d2 "E"e4|!
"A"ABcB cded|efgf e2dc|"G"B3c d2c2|"E" B4 "A"A4:|]
